app/resources/assets/icons/logo_2017.svg

<?xml version="1.0" encoding="UTF-8"?>
<svg width="238px" height="359px" viewBox="0 0 238 359" version="1.1" xmlns="http://www.w3.org/2000/svg" xmlns:xlink="http://www.w3.org/1999/xlink">
    <!-- Generator: Sketch 43.2 (39069) - http://www.bohemiancoding.com/sketch -->
    <title>logo_2017</title>
    <desc>Created with Sketch.</desc>
    <defs>
        <radialGradient cx="38.2164657%" cy="52.8081908%" fx="38.2164657%" fy="52.8081908%" r="58.3147238%" gradientTransform="translate(0.382165,0.528082),scale(1.000000,0.662067),translate(-0.382165,-0.528082)" id="radialGradient-1">
            <stop stop-color="#A4D9E6" offset="0%"></stop>
            <stop stop-color="#41A3DB" offset="100%"></stop>
        </radialGradient>
        <radialGradient cx="18034%" cy="22127%" fx="18034%" fy="22127%" r="4143%" gradientTransform="translate(180.340000,221.270000),scale(1.000000,0.901080),translate(-180.340000,-221.270000)" id="radialGradient-2">
            <stop stop-color="#FFFFFF" offset="0%"></stop>
            <stop stop-color="#E4F7FD" offset="97.0623406%"></stop>
        </radialGradient>
        <radialGradient cx="20615%" cy="18182%" fx="20615%" fy="18182%" r="944%" gradientTransform="translate(206.150000,181.820000),scale(1.000000,0.538494),translate(-206.150000,-181.820000)" id="radialGradient-3">
            <stop stop-color="#FFFFFF" offset="0%"></stop>
            <stop stop-color="#CFEAF2" offset="100%"></stop>
        </radialGradient>
        <radialGradient cx="18125%" cy="19055%" fx="18125%" fy="19055%" r="4327%" gradientTransform="translate(181.250000,190.550000),scale(0.589417,1.000000),translate(-181.250000,-190.550000)" id="radialGradient-4">
            <stop stop-color="#FFFFFF" offset="0%"></stop>
            <stop stop-color="#CFEAF2" offset="100%"></stop>
        </radialGradient>
        <linearGradient x1="49.990991%" y1="94.7892031%" x2="49.990991%" y2="1.27964322%" id="linearGradient-5">
            <stop stop-color="#020E45" offset="0%"></stop>
            <stop stop-color="#041873" offset="100%"></stop>
        </linearGradient>
        <linearGradient x1="49.9927985%" y1="100%" x2="49.9927985%" y2="0%" id="linearGradient-6">
            <stop stop-color="#003867" stop-opacity="0" offset="17%"></stop>
            <stop stop-color="#003867" offset="33%"></stop>
            <stop stop-color="#003867" offset="59%"></stop>
            <stop stop-color="#003867" stop-opacity="0" offset="84%"></stop>
        </linearGradient>
        <radialGradient cx="31.8986109%" cy="47.5788043%" fx="31.8986109%" fy="47.5788043%" r="70.7727926%" gradientTransform="translate(0.318986,0.475788),scale(1.000000,0.680761),translate(-0.318986,-0.475788)" id="radialGradient-7">
            <stop stop-color="#FFFFFF" offset="0%"></stop>
            <stop stop-color="#FFFFFF" stop-opacity="0" offset="100%"></stop>
        </radialGradient>
        <radialGradient cx="49.6821333%" cy="49.6616764%" fx="49.6821333%" fy="49.6616764%" r="115.022222%" gradientTransform="translate(0.496821,0.496617),scale(1.000000,0.370969),translate(-0.496821,-0.496617)" id="radialGradient-8">
            <stop stop-color="#FFFFFF" stop-opacity="0" offset="4%"></stop>
            <stop stop-color="#FFFFFF" offset="34%"></stop>
            <stop stop-color="#FFFFFF" stop-opacity="0" offset="100%"></stop>
        </radialGradient>
        <radialGradient cx="50%" cy="0%" fx="50%" fy="0%" r="100%" gradientTransform="translate(0.500000,0.000000),scale(1.000000,0.538572),rotate(90.000000),scale(1.000000,0.783749),translate(-0.500000,-0.000000)" id="radialGradient-9">
            <stop stop-color="#003867" offset="0%"></stop>
            <stop stop-color="#003867" stop-opacity="0" offset="100%"></stop>
        </radialGradient>
    </defs>
    <g id="Homepage" stroke="none" stroke-width="1" fill="none" fill-rule="evenodd">
        <g id="G.xxx---B.1024---2560" transform="translate(-1161.000000, -325.000000)">
            <g id="logo_2017" transform="translate(1161.000000, 324.000000)">
                <path d="M119,0.952941176 C119,0.952941176 135.270588,56.9294118 164.529412,94.1294118 C208.188235,151.764706 237.535294,194.117647 237.535294,242.805882 C237.535294,316.147059 184.470588,359.029412 119,359.029412 C53.5294118,359.029412 0.464705882,316.147059 0.464705882,242.805882 C0.464705882,186.035294 37.2058824,145.394118 75.2529412,93.4411765 C109.858824,46.1647059 119,0.952941176 119,0.952941176 Z" id="base-2" fill="url(#radialGradient-1)"></path>
                <path d="M120.994118,176.029412 L50.4058824,246.247059 L50.4058824,329.629412 L72.4823529,329.629412 L72.4823529,261.847059 C72.4920269,259.356049 74.5089905,257.339086 77,257.329412 L108.058824,257.329412 C110.549833,257.339086 112.566797,259.356049 112.576471,261.847059 L112.576471,329.629412 L188.811765,329.629412 L188.811765,243.529412 L120.994118,176.029412 Z" id="Shape" fill="url(#radialGradient-2)"></path>
                <rect id="Rectangle-path" fill="url(#radialGradient-3)" fill-rule="nonzero" x="153.994118" y="162.476471" width="22.3411765" height="41.4882353"></rect>
                <polygon id="Shape" fill="#FFFFFF" points="155.088235 163.852941 176.317647 162.670588 176.317647 162.476471 153.976471 162.476471 153.976471 203.964706 153.517647 203.964706"></polygon>
                <polygon id="Shape" fill="#8FBECA" opacity="0.85" points="176.317647 203.964706 153.976471 203.964706 153.976471 176.452941 176.317647 193.323529"></polygon>
                <polygon id="Shape" fill="#8FBECA" points="50.4058824 248.152941 121.682353 183.529412 188.441176 244.164706 188.441176 232.464706 121.682353 169.164706 50.4235294 238.852941"></polygon>
                <path d="M196.841176,252.123529 C198.615376,253.87971 201.472859,253.87971 203.247059,252.123529 L212.917647,242.452941 C214.684041,240.391322 214.684041,237.349854 212.917647,235.288235 L121.152941,143.805882 L29.5117647,236.064706 C27.7555846,237.838906 27.7555846,240.696388 29.5117647,242.470588 L39.2,252.141176 C40.9702245,253.906998 43.8356579,253.906998 45.6058824,252.141176 L121.258824,176.047059 L196.841176,252.123529 Z" id="Shape" fill="url(#radialGradient-4)"></path>
                <path d="M122.405882,145.835294 L30.7647059,237.335294 C28.9988848,239.105519 28.9988848,241.970952 30.7647059,243.741176 L29.4764706,242.470588 C27.7202905,240.696388 27.7202905,237.838906 29.4764706,236.064706 L121.117647,144.564706 L122.405882,145.835294 Z" id="Shape" fill="#FFFFFF"></path>
                <path d="M187.082353,305.029412 C176.412753,308.133042 172.41404,310.852941 167.419922,312.370588 C146.508157,318.670588 136.506101,303.441176 120.905882,303.441176 C105.305664,303.441176 93.8,313.358824 80.9882353,313.817647 C69.0588235,314.241176 60.0058594,303.441176 49.0823529,303.441176 C38.1588465,303.441176 30.7265625,307.303711 21.1117647,312.370588 C42.4647059,342.494118 78.3411765,359.047059 119.017647,359.047059 C159.694118,359.047059 195.658824,342.458824 216.994118,312.247059 C207.40918,307.688477 197.751953,301.925781 187.082353,305.029412 Z" id="waves" fill="url(#linearGradient-5)"></path>
                <path d="M119,0.952941176 C119,0.952941176 135.270588,56.9294118 164.529412,94.1294118 C208.117647,151.764706 237.464706,194.117647 237.464706,242.805882 C237.464706,316.147059 184.4,359.029412 118.929412,359.029412 L114.941176,359.029412 C178.470588,357.264706 223.647059,314.717647 223.647059,242.876471 C223.647059,194.117647 200.176471,151.764706 156.482353,94.1294118 C156.482353,94.1294118 118.735294,43.3941176 118.735294,1.21764706" id="dark_edge" fill="url(#linearGradient-6)" opacity="0.5" style="mix-blend-mode: soft-light;"></path>
                <path d="M117.994118,14.5058824 C117.994118,14.5058824 133.117647,65.2941176 160.452941,99 C201.164706,151.2 228.517647,189.6 228.517647,233.823529 C228.517647,300.317647 179.105882,339.211765 117.994118,339.211765 C56.8823529,339.211765 7.47058824,300.388235 7.47058824,233.823529 C7.47058824,182.347059 41.7235294,145.588235 77.1941176,98.3823529 C109.470588,55.5176471 117.994118,14.5058824 117.994118,14.5058824 Z" id="shine" fill="url(#radialGradient-7)" opacity="0.4"></path>
                <path d="M24.6764706,216.847059 C24.6764706,164.029412 56.6705882,133.429412 88.4,85.1117647 C104.282353,60.9176471 115.876471,37.2882353 121.152941,20.9470588 L120.817647,20.0647059 C112.787521,43.2523169 101.298954,65.0930888 86.7411765,84.8470588 C52.8588235,130.729412 21.8882353,162.494118 21.8882353,214.941176 C22.1399704,242.009168 32.6169572,267.981 51.2176471,287.647059 C39.0764706,269.064706 24.6764706,244.005882 24.6764706,216.847059 Z" id="highlight" fill="url(#radialGradient-8)"></path>
                <path d="M119,9.26470588 C119,9.26470588 129.023529,54.8117647 147.058824,85.1470588 C173.952941,131.982353 192.041176,166.429412 192.041176,206.1 C192.041176,265.764706 159.341176,280.570588 118.982353,280.570588 C78.6235294,280.570588 45.9235294,265.764706 45.9235294,206.1 C45.9235294,159.9 68.5647059,126.864706 92.0176471,84.5823529 C104.964839,61.0733632 114.07371,35.6471631 119,9.26470588 Z" id="dark_center" fill="url(#radialGradient-9)" style="mix-blend-mode: soft-light;"></path>
            </g>
        </g>
    </g>
</svg>

<?xml version="1.0" encoding="UTF-8"?><svg viewBox="0 0 238 359" xmlns="http://www.w3.org/2000/svg"><defs><radialGradient cx="38.216%" cy="52.808%" fx="38.216%" fy="52.808%" r="58.315%" gradientTransform="matrix(1 0 0 .66207 0 .178)" id="a"><stop stop-color="#A4D9E6" offset="0%"/><stop stop-color="#41A3DB" offset="100%"/></radialGradient><radialGradient cx="18034%" cy="22127%" fx="18034%" fy="22127%" r="4143%" gradientTransform="matrix(1 0 0 .90108 0 21.888)" id="b"><stop stop-color="#FFF" offset="0%"/><stop stop-color="#E4F7FD" offset="97.062%"/></radialGradient><radialGradient cx="20615%" cy="18182%" fx="20615%" fy="18182%" r="944%" gradientTransform="matrix(1 0 0 .5385 0 83.911)" id="c"><stop stop-color="#FFF" offset="0%"/><stop stop-color="#CFEAF2" offset="100%"/></radialGradient><radialGradient cx="18125%" cy="19055%" fx="18125%" fy="19055%" r="4327%" gradientTransform="matrix(.58942 0 0 1 74.418 0)" id="d"><stop stop-color="#FFF" offset="0%"/><stop stop-color="#CFEAF2" offset="100%"/></radialGradient><radialGradient cx="31.899%" cy="47.579%" fx="31.899%" fy="47.579%" r="70.773%" gradientTransform="matrix(1 0 0 .68076 0 .152)" id="g"><stop stop-color="#FFF" offset="0%"/><stop stop-color="#FFF" stop-opacity="0" offset="100%"/></radialGradient><radialGradient cx="49.682%" cy="49.662%" fx="49.682%" fy="49.662%" r="115.022%" gradientTransform="matrix(1 0 0 .37097 0 .312)" id="h"><stop stop-color="#FFF" stop-opacity="0" offset="4%"/><stop stop-color="#FFF" offset="34%"/><stop stop-color="#FFF" stop-opacity="0" offset="100%"/></radialGradient><radialGradient cx="50%" cy="0%" fx="50%" fy="0%" r="100%" gradientTransform="matrix(0 .53857 -.78375 0 .5 -.27)" id="i"><stop stop-color="#003867" offset="0%"/><stop stop-color="#003867" stop-opacity="0" offset="100%"/></radialGradient><linearGradient x1="49.991%" y1="94.789%" x2="49.991%" y2="1.28%" id="e"><stop stop-color="#020E45" offset="0%"/><stop stop-color="#041873" offset="100%"/></linearGradient><linearGradient x1="49.993%" y1="100%" x2="49.993%" y2="0%" id="f"><stop stop-color="#003867" stop-opacity="0" offset="17%"/><stop stop-color="#003867" offset="33%"/><stop stop-color="#003867" offset="59%"/><stop stop-color="#003867" stop-opacity="0" offset="84%"/></linearGradient></defs><g fill="none" fill-rule="evenodd"><path d="M119 .953s16.27 55.976 45.53 93.176c43.658 57.636 73.005 99.989 73.005 148.677 0 73.341-53.064 116.223-118.535 116.223C53.53 359.03.465 316.147.465 242.806c0-56.77 36.74-97.412 74.788-149.365C109.859 46.165 119 .953 119 .953z" fill="url(#a)" transform="translate(0 -1)"/><path d="M120.994 176.03l-70.588 70.217v83.382h22.076v-67.782A4.535 4.535 0 0177 257.33h31.059a4.535 4.535 0 014.517 4.518v67.782h76.236v-86.1l-67.818-67.5z" fill="url(#b)" transform="translate(0 -1)"/><path fill="url(#c)" fill-rule="nonzero" d="M153.994 162.476h22.341v41.488h-22.341z" transform="translate(0 -1)"/><path fill="#FFF" d="M155.088 162.853l21.23-1.182v-.195h-22.342v41.489h-.458z"/><path fill="#8FBECA" opacity=".85" d="M176.318 202.965h-22.342v-27.512l22.342 16.87z"/><path fill="#8FBECA" d="M50.406 247.153l71.276-64.624 66.76 60.636v-11.7l-66.76-63.3-71.258 69.688z"/><path d="M196.841 252.124a4.553 4.553 0 006.406 0l9.67-9.671a5.506 5.506 0 000-7.165l-91.764-91.482-91.641 92.259a4.553 4.553 0 000 6.406l9.688 9.67a4.535 4.535 0 006.406 0l75.653-76.094 75.582 76.077z" fill="url(#d)" transform="translate(0 -1)"/><path d="M122.406 144.835l-91.641 91.5a4.535 4.535 0 000 6.406l-1.289-1.27a4.553 4.553 0 010-6.406l91.642-91.5 1.288 1.27z" fill="#FFF"/><path d="M187.082 305.03c-10.67 3.103-14.668 5.823-19.662 7.34-20.912 6.3-30.914-8.929-46.514-8.929-15.6 0-27.106 9.918-39.918 10.377-11.93.423-20.982-10.377-31.906-10.377-10.923 0-18.355 3.863-27.97 8.93 21.353 30.123 57.23 46.676 97.906 46.676 40.676 0 76.64-16.588 97.976-46.8-9.585-4.559-19.242-10.321-29.912-7.218z" fill="url(#e)" transform="translate(0 -1)"/><path d="M119 .953s16.27 55.976 45.53 93.176c43.588 57.636 72.935 99.989 72.935 148.677 0 73.341-53.065 116.223-118.536 116.223h-3.988c63.53-1.764 108.706-44.311 108.706-116.153 0-48.758-23.47-91.111-67.165-148.747 0 0-37.747-50.735-37.747-92.911" fill="url(#f)" opacity=".5" style="mix-blend-mode:soft-light" transform="translate(0 -1)"/><path d="M117.994 14.506S133.118 65.294 160.453 99c40.712 52.2 68.065 90.6 68.065 134.824 0 66.494-49.412 105.388-110.524 105.388S7.471 300.388 7.471 233.824c0-51.477 34.253-88.236 69.723-135.442 32.277-42.864 40.8-83.876 40.8-83.876z" fill="url(#g)" opacity=".4" transform="translate(0 -1)"/><path d="M24.676 216.847c0-52.818 31.995-83.418 63.724-131.735 15.882-24.194 27.476-47.824 32.753-64.165l-.335-.882A243.53 243.53 0 0186.74 84.847C52.86 130.73 21.888 162.494 21.888 214.941a107.259 107.259 0 0029.33 72.706c-12.142-18.582-26.542-43.641-26.542-70.8z" fill="url(#h)" transform="translate(0 -1)"/><path d="M119 9.265s10.024 45.547 28.059 75.882c26.894 46.835 44.982 81.282 44.982 120.953 0 59.665-32.7 74.47-73.059 74.47-40.358 0-73.058-14.805-73.058-74.47 0-46.2 22.64-79.235 46.094-121.518A252.018 252.018 0 00119 9.265z" fill="url(#i)" style="mix-blend-mode:soft-light" transform="translate(0 -1)"/></g></svg>
